X:225
T: Zwanzig Mrder (3-28), S. 93
N: P1000
O: Lothringen
S: PINCK, Louis: Verklingende Weisen, Bd3, Metz 1933]
R: Mord, Raub, Strafe]
M: 3/8
L: 1/16
K: Eb
G2 | G3GG2 | G3GG2 | F4E2 | D4
B2 | B4B2 | e4G2 | F2B2B2 | B4
G2 | B4A2 | c4A2 | A2G2G2 | B4
G2 | G4F2 | A4D2 | F4E2 | E4

